X: 802
T: Alabama Rick's
R: jig
M: 6/8
K: Amajor
|:AFE FAd|cA/A/A A2 A|afd ef/f/f|ecA A/B/BB|
AFE FAd|cA/A/A Ace|cde ef/f/f|1 ecA AA/B/A:|2 ecB AA/B/A||
|:=ged AB/B/B|de=g ece|aec AA/B/A|cea ece|
=ged AB/B/B|de=g ece|aec ef/f/f|1 ecB A2 f:|2 ecB Afg||
aa/e/e ee/a/e|dA/A/c ee/a/e|cA/A/B ee/a/e|cA/A/B efg|
aa/e/e ee/a/e|dA/A/c efg|ae/e/e ef/f/f|ecB Afg|
aa/e/e ee/a/e|d'2 c' ee/a/e|c'2 b ee/a/e|c'2 b efg|
aa/e/e ee/a/e|d'2 c' ee/a/e|ae/e/e ef/f/f|ecB A3||

